src/images/svg/symbols/bat.svg

<svg width="32" height="32" viewBox="0 0 32 32" fill="none" xmlns="http://www.w3.org/2000/svg">
<path d="M0 16C0 7.16344 7.16344 0 16 0C24.8366 0 32 7.16344 32 16C32 24.8366 24.8366 32 16 32C7.16344 32 0 24.8366 0 16Z" fill="#FF5000"/>
<path fill-rule="evenodd" clip-rule="evenodd" d="M12.3263 19.0258L4.97754 22.7002L15.9997 6.16699V13.5157L12.3263 19.0258ZM12.3257 19.0265L4.97754 22.7005H27.0218L19.674 19.0266L19.6741 19.0267L19.6736 19.0265H12.3261L12.3257 19.0267L12.3258 19.0265H12.3257ZM19.6735 19.0259L27.0221 22.7002L16 6.16699V17.1891L16 17.1891V13.5156L19.6735 19.0259Z" fill="white"/>
</svg>

<svg width="32" height="32" fill="none" xmlns="http://www.w3.org/2000/svg"><path d="M0 16C0 7.163 7.163 0 16 0s16 7.163 16 16-7.163 16-16 16S0 24.837 0 16Z" fill="#FF5000"/><path fill-rule="evenodd" clip-rule="evenodd" d="M12.326 19.026 4.978 22.7 16 6.167v7.349l-3.674 5.51Zm0 0-7.348 3.675h22.044l-7.348-3.674h-7.348Zm7.348 0 7.348 3.674L16 6.167v11.022-3.673l3.674 5.51Z" fill="#fff"/></svg>
